Papirus/16x16/actions/node-delete.svg

<?xml version="1.0" encoding="UTF-8" standalone="no"?>
<svg xmlns="http://www.w3.org/2000/svg" viewBox="0 0 16 16">
  <defs>
    <style type="text/css" id="current-color-scheme">
      .ColorScheme-Text {
        color:#5c616c;
      }
      </style>
  </defs>
  <path style="fill:currentColor;opacity:1" class="ColorScheme-Text" d="M 3.9980469 3 L 3.9980469 5 L 11.994141 5 L 11.994141 3 L 3.9980469 3 z M 5 9 L 5 12 L 0.58789062 12 C -0.078779375 12 -0.078779375 13 0.58789062 13 L 5 13 L 5 16 L 11 16 L 11 13 L 15.492188 13 C 16.158857 13 16.158857 12 15.492188 12 L 11 12 L 11 9 L 5 9 z "/>
</svg>

<?xml version="1.0" encoding="UTF-8" standalone="no"?>
<svg id="svg6394" xmlns:rdf="http://www.w3.org/1999/02/22-rdf-syntax-ns#" xmlns="http://www.w3.org/2000/svg" xmlns:osb="http://www.openswatchbook.org/uri/2009/osb" height="16" width="16" version="1.1" xmlns:cc="http://creativecommons.org/ns#" viewBox="0 0 16 16" xmlns:dc="http://purl.org/dc/elements/1.1/">
 <metadata id="metadata6399">
  <rdf:RDF>
   <cc:Work rdf:about="">
    <dc:format>image/svg+xml</dc:format>
    <dc:type rdf:resource="http://purl.org/dc/dcmitype/StillImage"/>
    <dc:title/>
   </cc:Work>
  </rdf:RDF>
 </metadata>
 <path id="path10583" opacity="1" fill="#5c616c" style="fill-rendering:auto;text-decoration-fill:#5c616c;fill:#5c616c;isolation:auto;mix-blend-mode:normal;shape-rendering:auto;solid-fill:#5c616c;block-progression:tb;text-decoration-line:none;text-decoration-style:solid;image-rendering:auto;white-space:normal;text-indent:0;text-transform:none" d="m3.998 3v2h7.9961v-2h-7.9961zm1.002 6v3h-4.4121c-0.66667 0-0.66667 1 0 1h4.4121v3h6v-3h4.4922c0.66667 0 0.66667-1 0-1h-4.492v-3z"/>
</svg>
